X: 1
T: Coleman's March
C: trad.
R: march
Z: 2020 John Chambers <jc:trillian.mit.edu>
S: https://www.facebook.com/groups/Fiddletuneoftheday/ 2020-8-19 & 2020-10-11
S: https://www.facebook.com/groups/Fiddletuneoftheday/photos/
M: 4/4
L: 1/8
K: D
|:\
"D"F4 FEDF | "G"G4 GFG2 | "A"A2AB A2F2 | "A7"E6 FG |
"D"A2d2 "A"c3B | "G"ABAG FED2 | "A7"E2EF GFE2 |1 "D"D4 A2G2  :|2 "D"D4 DFAc |
|:\
"D"d4- d4 | "A"c4- c4 | "G"B2Bc dcB2 | "D"A6 FE |
"D"A2d2 "A"c3B | "G"ABAG FED2 | "A7"E2EF GFE2 |1 "D"D4 DFAc :|2 "D"D4 A2G2 |]
